X:1
T:Jesus Loves Me
T:William B. Bradbury
T:Anna B. Warner
L:1/8
M:2/4
K:C
V:1 treble nm="Violin" snm="Vln."
V:1
 GE ED | EG G2 | AA cA | AG G2 | GE ED | EG G2 | AA GC | ED C2 | G2 EG | A c3 | G2 EC | E D3 | %12
 G2 EG | A !fermata!c2 A | GC ED | C4 |] %16

